X: 36456
T: Second Time Around
R: jig
M: 6/8
K: Dmajor
A|:"D"FGA FGA|"G"B2g efd|"D"B2d AGF|"A"E2A A2G|
"D"FGA FGA|"G"B2g efg|"D"fed "A"cde|1 "D"d3 d2 A:|2 "D"d3 d2 a||
|:"D"afa "A"geg|"D"fdf "A"efg|"D"afa "A"geg|"D"fdf "A"e2 A|
"D"FGA d2 d|"A"ecA efg|"D"fed "A"cde|1 "D"d3 d2 a:|2 "D"d3 d2||

